X:529
T: Bayueguihua biandikai
N: C1947
O: China, Henan Xinxiam
S: IV, 130]
R: Xiaodiao, Baduan jin]
M: 2/4
L: 1/16
K: Eb
e2c2B4 | ceBce4 | c3Bc2e2 | B8
B3ce2f2 | c2B2G4 | B2F2G2B2 | E8
B2ceB2G2 | F2E2F4 | B2ceB2G2 | F2E2F4
B3ce4 | c2B2G4 | B2F2G2B2 | E8
B2ce2BG2 | F2E2F4 | B2ceB2G2 | F2E2F4
B3ce4 | c2B2G4 | B2F2G2B2 | E8

